X: 25246
T: Man And Boy
R: barndance
M: 4/4
K: Dmajor
dA|:f2 A2 A3 B|AF Ad fa gf|g2 B2 B2 AB|dA Bd FE FA|
f2 A2 A3 B|AF Ad fa gf|fg fd ed B/c/d|ef d2 d4:|
|:EF A2 A2 EF|AE FA Bc AF|AB d2 d2 AB|dA gf ed BA|
EF A2 A2 EF|AE FA Bc de|fg fd ed B/c/d|ef d2 d4:|
|:d2 c2 B2 FB|BF FB FB cd|d2 cA B/c/d cB|AE FG G2 F2|
d2 c2 B2 FB|BF FB FA de|eg fd ed B/c/d|ef d2 d4:|

